X: 1
T: Leddy From Cavan
M: 4/4
L: 1/8
R: reel
K: Dmaj
=F2 DF ED=CE|Dddc de=fd|=c2 Bd cAGE|=F2 DF ED=CE|
DE=FE D~A,3|FGAF G2 FG|Addc dfed|1 cAGE D3 E:|2 cAGE D2 FA||
d2 fd Adfd|=c2 gc acgc|d2 fd Adfa|g2 ag {a}gece|
dafd Adfd|B/c/d ef g2 fg|a~f3 AcBd|1 cAGE D2 FA:|2 cAGE D3 E||
